timer-lock.svg

<svg fill="currentColor" viewBox="0 0 24 24"><path d="M15 3H9V1h6zm-.8 11.5v.24c-.7.6-1.2 1.5-1.2 2.46v3.5c0 .42.09.83.24 1.21-.41.05-.82.09-1.24.09a9 9 0 0 1 0-18c2.12 0 4.07.74 5.62 2l1.42-1.44c.51.44.96.9 1.41 1.41l-1.42 1.42c.68.85 1.2 1.83 1.54 2.89-.5-.17-1.02-.28-1.57-.28-2.6 0-4.8 2.06-4.8 4.5M13 7h-2v7h2zm10 10.3v3.5c0 .6-.6 1.2-1.3 1.2h-5.5c-.6 0-1.2-.6-1.2-1.3v-3.5c0-.6.6-1.2 1.2-1.2v-1.5c0-1.4 1.4-2.5 2.8-2.5s2.8 1.1 2.8 2.5V16c.6 0 1.2.6 1.2 1.3m-2.5-2.8c0-.8-.7-1.3-1.5-1.3s-1.5.5-1.5 1.3V16h3z"/></svg>

<svg  viewBox="0 0 24 24" fill="currentColor"><path  d="M15 3H9V1H15V3M14.2 14.5V14.74C13.5 15.34 13 16.24 13 17.2V20.7C13 21.12 13.09 21.53 13.24 21.91C12.83 21.96 12.42 22 12 22C7.03 22 3 17.97 3 13S7.03 4 12 4C14.12 4 16.07 4.74 17.62 6L19.04 4.56C19.55 5 20 5.46 20.45 5.97L19.03 7.39C19.71 8.24 20.23 9.22 20.57 10.28C20.07 10.11 19.55 10 19 10C16.4 10 14.2 12.06 14.2 14.5M13 7H11V14H13V7M23 17.3V20.8C23 21.4 22.4 22 21.7 22H16.2C15.6 22 15 21.4 15 20.7V17.2C15 16.6 15.6 16 16.2 16V14.5C16.2 13.1 17.6 12 19 12S21.8 13.1 21.8 14.5V16C22.4 16 23 16.6 23 17.3M20.5 14.5C20.5 13.7 19.8 13.2 19 13.2S17.5 13.7 17.5 14.5V16H20.5V14.5Z"/></svg>
